static/fa/svgs/solid/compress.svg

<svg xmlns="http://www.w3.org/2000/svg" viewBox="0 0 448 512"><!--! Font Awesome Free 6.1.2 by @fontawesome - https://fontawesome.com License - https://fontawesome.com/license/free (Icons: CC BY 4.0, Fonts: SIL OFL 1.1, Code: MIT License) Copyright 2022 Fonticons, Inc. --><path d="M128 320H32c-17.69 0-32 14.31-32 32s14.31 32 32 32h64v64c0 17.69 14.31 32 32 32s32-14.31 32-32v-96C160 334.3 145.7 320 128 320zM416 320h-96c-17.69 0-32 14.31-32 32v96c0 17.69 14.31 32 32 32s32-14.31 32-32v-64h64c17.69 0 32-14.31 32-32S433.7 320 416 320zM320 192h96c17.69 0 32-14.31 32-32s-14.31-32-32-32h-64V64c0-17.69-14.31-32-32-32s-32 14.31-32 32v96C288 177.7 302.3 192 320 192zM128 32C110.3 32 96 46.31 96 64v64H32C14.31 128 0 142.3 0 160s14.31 32 32 32h96c17.69 0 32-14.31 32-32V64C160 46.31 145.7 32 128 32z"/></svg>

<svg xmlns="http://www.w3.org/2000/svg" viewBox="0 0 448 512"><!--! Font Awesome Free 6.5.2 by @fontawesome - https://fontawesome.com License - https://fontawesome.com/license/free (Icons: CC BY 4.0, Fonts: SIL OFL 1.1, Code: MIT License) Copyright 2024 Fonticons, Inc. --><path d="M160 64c0-17.7-14.3-32-32-32s-32 14.3-32 32v64H32c-17.7 0-32 14.3-32 32s14.3 32 32 32h96c17.7 0 32-14.3 32-32V64zM32 320c-17.7 0-32 14.3-32 32s14.3 32 32 32H96v64c0 17.7 14.3 32 32 32s32-14.3 32-32V352c0-17.7-14.3-32-32-32H32zM352 64c0-17.7-14.3-32-32-32s-32 14.3-32 32v96c0 17.7 14.3 32 32 32h96c17.7 0 32-14.3 32-32s-14.3-32-32-32H352V64zM320 320c-17.7 0-32 14.3-32 32v96c0 17.7 14.3 32 32 32s32-14.3 32-32V384h64c17.7 0 32-14.3 32-32s-14.3-32-32-32H320z"/></svg>
